src/images/icons/filter.svg

<svg xmlns="http://www.w3.org/2000/svg" width="16" height="16" fill="none"><path fill="#00112C" d="M1.25 1.25H14.75V4.05C14.75 4.65117 14.5094 5.22128 14.0903 5.64033L10.08 9.65066V11.6212L7.34093 14.76H5.92V9.65066L1.90967 5.64033C1.49062 5.22128 1.25 4.65117 1.25 4.05V1.25ZM2.75 2.75V4.05C2.75 4.24883 2.82938 4.43872 2.97033 4.57967L7.42 9.02934V12.388L8.58 11.0588V9.02934L13.0297 4.57967C13.1706 4.43872 13.25 4.24883 13.25 4.05V2.75H2.75Z"/></svg>

<svg xmlns="http://www.w3.org/2000/svg" fill="none" viewBox="0 0 16 16"><path fill="currentColor" d="M1.25 1.25h13.5v2.8c0 .6-.24 1.17-.66 1.59l-4.01 4.01v1.97l-2.74 3.14H5.92v-5.1L1.91 5.63a2.3 2.3 0 0 1-.66-1.59zm1.5 1.5v1.3q0 .31.22.53l4.45 4.45v3.36l1.16-1.33V9.03l4.45-4.45a.8.8 0 0 0 .22-.53v-1.3z"/></svg>
